X: 36
T: The Log-Splitter's Jig
C:Phil Cunningham
M:6/8
L:1/8
K:D
f2 A B3/G/G | B2 G e3/c/c| A3/G/B A/a3/f| g3/e/d c3/d/e|
f2 A B3/G/G| B2 G e3/c/e| A3/G/B A/A3/f| g3/e/c d2 e :|
|G2 B A3/A/A| B3/G/B g2 a| f3/e/f A3/d/c| B/G3/B e2 c|
G2 B A3/A/A| B3/G/B g2 a| f3/e/f A3/A/A| d/e3/c d2 e|
G2 B A3/A/A| B3/G/B g2a| f3/e/f A3/A/A| B/G3/B e2 c|
G2 B/ A3/A/A| B3/G/B g2 a| f3/e/f g3/e/c| d/e3/c d2 a ||
"last time"d/e3/c d2 ||

%%sep 2 1 500

